X: 44
T: 44. Mach's mit mir, Gott, nach deiner G\"ut
N: Derived from chor044.krn
C: Johann Sebastian Bach
%%abc-version 2.0
%%abcx-abcm2ps-target-version 5.9.1 (29 Sep 2008)
%%abc-creator hum2abc beta
%%abcx-conversion-date 2019/03/11 17:28:17
%%abc-edited-by Craig Stuart Sapp
%%humdrum-veritas 1299047234
%%humdrum-veritas-data 727912499
%%
%%barnumbers 0
L: 1/4
M: C
%%staves [1 2 3 4]
V: 1 clef=treble
V: 2 clef=treble
V: 3 clef=treble-8
V: 4 clef=bass
K: D
[V:1] D/E/ [I:setbarnb 1]| 
[V:2] A, | 
[V:3] F/G/ | 
[V:4] D, | 
[V:1] FGAA | 
[V:2] DDED/C/ | 
[V:3] AG/F/EF | 
[V:4] D,/C,/B,,C,D, | 
[V:1] GF!fermata!EA | 
[V:2] B,/C/D!fermata!CE | 
[V:3] GA!fermata!AA | 
[V:4] E,F,/G,/!fermata!A,C | 
[V:1] Bcdc | 
[V:2] F/^G/ABA- | 
[V:3] deee | 
[V:4] B,A,^G,A, | 
[V:1] B2!fermata!A :|]  
[V:2] A^G!fermata!E :|]  
[V:3] fe/d/!fermata!c :|]  
[V:4] D,E,!fermata!A,, :|]  
[V:1] A [I:setbarnb 5]| 
[V:2] E | 
[V:3] c/B/ | 
[V:4] A,/=G,/ | 
[V:1] dcBA | 
[V:2] FED/E/F | 
[V:3] A/F/G/A/BB | 
[V:4] F,/D,/E,/F,/ G,/F,/E,/^D,/ | 
[V:1] GF!fermata!EA | 
[V:2] EA,/B,/!fermata!CF/E/ | 
[V:3] B/c/=d!fermata!Ac | 
[V:4] E,F,/^G,/!fermata!A,F, | 
[V:1] GFE/F/G | 
[V:2] D/ED/- D/C/D | 
[V:3] B/A/AAG | 
[V:4] B,,/C,/D,A,,B,, | 
[V:1] FE!fermata!D |]  
[V:2] DC!fermata!A, |]  
[V:3] A3/G/!fermata!F |]  
[V:4] A,,/G,,/A,,!fermata!D,, |]  



